X:1
T:The Old Account Was Settled
T:The Old Account Was Settled
T:Frank Monford Graham
T:Frank Monford Graham, 1902
T:Public Domain Courtesy of the Cyber Hymnal™
T:Public Domain Courtesy of the Cyber Hymnal™
C:Frank Monford Graham
Z:Public Domain
Z:Courtesy of the Cyber Hymnal™
%%score 1 ( 2 3 )
L:1/8
Q:1/4=90
M:4/4
K:Ab
V:1 treble 
V:2 bass 
V:3 bass 
V:1
 [CE] | [CA]>[CA] [CA]>[CA] [CA]3 [CA] | [Ec]>[Ec] [Ec]>[DB] [CA]3 [CA] | %3
w: 1.~There|was a time on earth, when|in the book of Heav’n An|
w: 2.~The|old ac- count was large, and|grow- ing ev- ery day, For|
w: 3.~When|at the judg- ment bar I|stand be- fore my king, And|
w: 4.~When|in that hap- py home, my|Sav- ior’s home a- bove, I’ll|
w: 5.~O|sin- ner, trust the Lord, be|cleansed of all your sin, For|
 [DF]>[DF] [DA]>[DA] [DF] [CE]2 [CA] | [EB]>[EB] [EB]>[Ec] [EB]3 [CE] | %5
w: old ac- count was stand- ing for|sins yet un- for- giv’n; My|
w: I was al- ways sin- ning, and|ne- ver tried to pay; But|
w: He the book will o- pen, He|can- not find a thing; Then|
w: sing re- demp- tion’s sto- ry, and|praise Him for His love; I’ll|
w: thus He hath pro- vid- ed for|you to en- ter in; And|
 [CA]>[CA] [CA]>[CA] [CA]3 [CA] | [Ec]>[Ec] [Ec]>[DB] [CA]3 [CA] | %7
w: name was at the top, and|ma- ny things be- low, I|
w: when I looked a- head, and|saw such pain and woe, I|
w: my heart will be glad, while|tears of joy will flow, Be-|
w: not for- get that book, with|pag- es white as snow, Be-|
w: then if you should live a|hun- dred years be- low, Up|
 [DF]>[DF] [DA]>[DA] [DF] [CE]2 [CA] | [Ec]<[Ec] [DB]>[DB] [CA]2 ||"^Refrain" [B,G]>[CA] | %10
w: went un- to the Keep- er, and|set- tled long a- go.||
w: said that I would set- tle, I|set- tled long a- go.||
w: cause I had it set- tled, and|set- tled long a- go.|Long a-|
w: cause I came and set- tled, and|set- tled long a- go.||
w: there you’ll not re- gret it, you|set- tled long a- go.||
 [DB]6 [Ec]>[DB] | [CA]6 [EA]>[EB] | [Ac]>[Ac] [Ac]>[Ac] [Ac]<[Ac] [EB]>[FA] | [GB]6 [EA]>[EB] | %14
w: ||||
w: ||||
w: go, long a-|go, Yes, the|old ac- count was set- tled long a-|go; And the|
w: ||||
w: ||||
 [Ec]<[Ec] [Ec]>[DB] [CA]2 [CA]>[CA] | [DF]>[DA] [DA]>[DF] [CE]2 [CA]>[DB] | %16
w: ||
w: ||
w: re- cord’s clear to- day, for He|washed my sins a- way, When the|
w: ||
w: ||
 [Ec]>[Ec] [Ec]>[Ec] [DB]<[DB] [Ec]>[DB] | [CA]6- [CA] |] %18
w: ||
w: ||
w: old ac- count was set- tled long a-|go. *|
w: ||
w: ||
V:2
 [A,,A,] | [A,,E,]>[A,,E,] [A,,E,]>[A,,E,] [A,,E,]3 [A,,A,] | A,>A, A,>A, A,3 A, | %3
w: ~|~ ~ ~ ~ ~ ~|~ ~ ~ ~ ~ ~|
 [D,A,]>[D,A,] [D,F,]>[D,F,] [A,,A,] [A,,A,]2 [A,,A,] | %4
w: ~ ~ ~ ~ ~ ~ ~|
 [E,G,]>[E,G,] [E,G,]>[E,A,] [E,G,]3 [A,,A,] | [A,,E,]>[A,,E,] [A,,E,]>[A,,E,] [A,,E,]3 [A,,A,] | %6
w: ~ ~ ~ ~ ~ ~|~ ~ ~ ~ ~ ~|
 A,>A, A,>A, A,3 A, | [D,A,]>[D,A,] [D,F,]>[D,F,] [A,,A,] [A,,A,]2 [A,,A,] | %8
w: ~ ~ ~ ~ ~ ~|~ ~ ~ ~ ~ ~ ~|
 [E,A,]<[E,A,] [E,G,]>[E,G,] [A,,A,]2 || z2 | z2 (3[E,G,][E,G,][E,G,] [E,G,]2 z2 | %11
w: ~ ~ ~ ~ ~||down on my knees|
 z A, (3[E,A,][E,A,][C,A,] [A,,A,]2 [A,C]>[A,D] | %12
w: I set- tled it all ~ ~|
 [A,E]>[A,E] [A,E]>[A,E] [A,E]<[A,E] [G,E]>[F,=D] | [E,E]2 [E,E]>[F,D] [E,C][D,B,] [C,A,]>[B,,G,] | %14
w: ~ ~ ~ ~ ~ ~ ~ ~|~ Hal- le- lu- jah! * *|
 [A,,A,]<[A,,A,] [A,,A,]>[A,,A,] [A,,A,]2 [A,,A,]>[A,,A,] | %15
w: |
 [D,A,]>[D,F,] [D,F,]>[D,A,] [A,,A,]2 A,>A, | A,>A, A,>A, [E,G,]<[E,G,] [E,A,]>[E,G,] | %17
w: ||
 [A,,A,]6- [A,,A,] |] %18
w: |
V:3
 x | x8 | A,>A, A,>A, A,3 A, | x8 | x8 | x8 | x8 | x8 | x6 || x2 | x8 | x8 | x8 | x8 | x8 | x8 | %16
 x8 | x7 |] %18

